X:82
%%topspace -50
T: Three Around Three
M: 4/4
L: 1/4
K: G
"G"d B/A/ GG|"D"A B/A/ "G"GD| "C"E/D/E/F/ "G"G A/B/ |"Am"cB"D7"BA|
"G"d B/A/ GG|"D"A B/A/ "G"GD| "C"E/D/E/F/ "D"GA|"G"BGG2:: 
"G"d e/f/  g/f/e/d/ |"C"eee f/e/ |"G"dBBG| "Am"F/G/A/B/ "D"A2|
"G"d e/f/  g/f/e/d/ |"C"ee"G"ed| "C"e/f/ g "D"f/g/a/f/ |"G"g2g2:| 

